X:1
T:Who shall ascend thy heavenly place
T:Who shall ascend thy heavenly place (Piety) - John Massey
C:John Massey
Z:Text: Isaac Watts, on Ps. 15
%%score [ 1 2 3 4 ]
L:1/8
M:3/2
K:Bb
V:1 treble nm="Soprano" snm="S."
V:2 treble nm="Alto" snm="A."
V:3 treble-8 transpose=-12 nm="Tenor" snm="T."
V:4 bass nm="Bass" snm="B."
V:1
 F4 | (B3 c d4) c4 | B8 c4 | (d2 ef e4) d4 | (d4 c4) c4 | (d3 c B2 c2) (d2 =e2) | f8 (=e2 f2) | %7
w: He|ne- * * ver|deals in|bri- * * * bing|gold, _ And|mourns _ _ _ that _|jus- tice _|
w: Who|shall _ _ as-|cend thy|heav’n- * * * ly|place, _ Great|God, _ _ _ and _|dwell be- *|
w: Firm|to _ _ his|word he|e- * * * ver|stood, _ And|al- * * * ways _|makes his _|
 (d2 cB A4) G4 | F8 ||[M:2/2] F4 | B2 B2 B2 c2 | (d2 ed c2) B2 | (B4 A2) (Bc) | d2 d2 d2 e2 | %14
w: should _ _ _ be|sold;|While|o- thers gripe and|grind _ _ _ the|poor, _ while _|o- thers gripe and|
w: fore _ _ _ thy|face?|The|man that minds re-|li- * * * gion|now, _ The _|man that minds re-|
w: pro- * * * mise|good;|Nor|dares to change the|thing _ _ _ he|swears, _ nor _|dares to change the|
 (f2 gf e2) d2 | (d4 c4) | z4 c4 | (d3 c B2) A2 | (Bcde f2) e2 | d4 c4 | B8 |] %21
w: grind _ _ _ the|poor, _|Sweet|cha- * * ri-|ty _ _ _ _ at-|tends his|door.|
w: li- * * * gion|now, _|And|hum- * * bly|walks _ _ _ _ with|God be-|low.|
w: thing _ _ _ he|swears, _|What-|e- * * ver|pain _ _ _ _ or|loss he|bears.|
V:2
 D4 | F8 F4 | F8 F4 | F8 F4 | F8 F4 | F8 G4 | A8 A4 | (G4 F4) =E4 | F8 ||[M:2/2] z4 | z8 | z8 | %12
w: He|ne- ver|deals in|bri- bing|gold, And|mourns that|jus- tice|should _ be|sold;||||
w: Who|shall as-|cend thy|heav’n- ly|place, Great|God, and|dwell be-|fore _ thy|face?||||
w: Firm|to his|word he|e- ver|stood, And|al- ways|makes his|pro- * mise|good;||||
 z4 z2 F2 | G2 G2 F2 F2 | (F2 EF G2) (DE) | F8 | z4 F4 | (F4 G2) C2 | (F4 B2) G2 | F6 E2 | D8 |] %21
w: While|o- thers gripe and|grind _ _ _ the _|poor,|Sweet|cha- * ri-|ty _ at-|tends his|door.|
w: The|man that minds re-|li- * * * gion _|now,|And|hum- * bly|walks _ with|God be-|low.|
w: Nor|dares to change the|thing _ _ _ he _|swears,|What-|e- * ver|pain _ or|loss he|bears.|
V:3
 B4 | (d3 e f4) e4 | d8 A4 | (B2 cd c4) B4 | (B4 A4) A4 | (B3 c d2 c2) B4 | (A3 B c2 d2) c4 | %7
w: He|ne- * * ver|deals in|bri- * * * bing|gold, _ And|mourns _ _ _ that|jus- * * * tice|
w: Who|shall _ _ as-|cend thy|heav’n- * * * ly|place, _ Great|God, _ _ _ and|dwell _ _ _ be-|
w: Firm|to _ _ his|word he|e- * * * ver|stood, _ And|al- * * * ways|makes _ _ _ his|
 (d4 c4) c4 | c8 ||[M:2/2] z4 | z4 z2 F2 | B2 B2 c2 d2 | (d4 ce)(dc) | B6 e2 | (d2 cd e2) B2 | %15
w: should _ be|sold;||While|o- thers gripe and|grind _ _ the _|poor, and|grind _ _ _ the|
w: fore _ thy|face?||The|man that minds re-|li- * * gion _|now, re-|li- * * * gion|
w: pro- * mise|good;||Nor|dares to change the|thing _ _ he _|swears, the|thing _ _ _ he|
 (B4 A4) | z4 A4 | (B3 c d2) f2 | (BABc d2) (cB) | B4 A4 | B8 |] %21
w: poor, _|Sweet|cha- * * ri-|ty _ _ _ _ at- *|tends his|door.|
w: now, _|And|hum- * * bly|walks _ _ _ _ with _|God be-|low.|
w: swears, _|What-|e- * * ver|pain _ _ _ _ or _|loss he|bears.|
V:4
 B,,4 | B,8"^7" F,4 |"^6" (D,3 C, B,,4) F,4 | (B,4"^65" A,4) B,4 |"^64""^53" F,8 F,4 | %5
w: He|ne- ver|deals _ _ in|bri- * bing|gold, And|
w: Who|shall as-|cend _ _ thy|heav’n- * ly|place, Great|
w: Firm|to his|word _ _ he|e- * ver|stood, And|
 (B,6"^6" A,2)"^53""^´" G,4 | (F,3 G,"^6" A,2 B,2)"^E" (C2"^6" A,2) |"^6" (B,4"^64" C4)"^5E" C,4 | %8
w: mourns _ that|jus- * * * tice _|should _ be|
w: God, _ and|dwell _ _ _ be- *|fore _ thy|
w: al- * ways|makes _ _ _ his _|pro- * mise|
 F,8 ||[M:2/2] z4 | z8 | z4 z2 B,,2 | F,2 F,2"^7" F,2"^6" (B,A,) |"^53" (G,F,G,A, B,"^6"A,B,C | %14
w: sold;|||While|o- thers gripe and _|grind _ _ _ _ _ _ _|
w: face?|||The|man that minds re- *|li- * * * * * * *|
w: good;|||Nor|dares to change the _|thing _ _ _ _ _ _ _|
 D2"^6" ED C2) B,2 |"^64""^53" F,8 | %16
w: _ _ _ _ the|poor,|
w: * * * * gion|now,|
w: _ _ _ _ he|swears,|
"^Notes: Original order of staves is Tenor - Alto - Air - Bass, with the Alto part printed in the treble clef an octave abovesounding pitch. Only the first verse of the text is given in the source: three other verses have been added editorially." z4 F,4 | %17
w: Sweet|
w: And|
w: What-|
 (B,3 A, G,2) (F,E,) |"^6" D,6"^6""^5" E,2 |"^64" F,4"^53" F,4 | B,,8 |] %21
w: cha- * * ri- *|ty at-|tends his|door.|
w: hum- * * bly _|walks with|God be-|low.|
w: e- * * ver _|pain or|loss he|bears.|

